src/assets/img/globalping/globalping-grid-type-4.svg

<svg xmlns="http://www.w3.org/2000/svg" width="1150" height="625" fill="none">
  <g stroke="#E1E9ED" opacity=".64">
    <path fill="#E7E7EE" d="m457.927 197.576 1.573-5.697 1.573 5.697a17.7 17.7 0 0 0 12.351 12.351l5.697 1.573-5.697 1.573a17.7 17.7 0 0 0-12.351 12.351l-1.573 5.697-1.573-5.697a17.7 17.7 0 0 0-12.351-12.351l-5.697-1.573 5.697-1.573a17.7 17.7 0 0 0 12.351-12.351Zm0 275 1.573-5.697 1.573 5.697a17.7 17.7 0 0 0 12.351 12.351l5.697 1.573-5.697 1.573a17.7 17.7 0 0 0-12.351 12.351l-1.573 5.697-1.573-5.697a17.7 17.7 0 0 0-12.351-12.351l-5.697-1.573 5.697-1.573a17.7 17.7 0 0 0 12.351-12.351Zm-116 0 1.573-5.697 1.573 5.697a17.7 17.7 0 0 0 12.351 12.351l5.697 1.573-5.697 1.573a17.7 17.7 0 0 0-12.351 12.351l-1.573 5.697-1.573-5.697a17.7 17.7 0 0 0-12.351-12.351l-5.697-1.573 5.697-1.573a17.7 17.7 0 0 0 12.351-12.351Z"/>
    <circle cx="13.5" cy="327.5" r="13" fill="#E7E7EE"/>
    <circle cx="321.5" cy="377.5" r="13" fill="#E7E7EE"/>
    <circle cx="782.5" cy="451.5" r="13" fill="#E7E7EE"/>
    <circle cx="965.5" cy="246.5" r="13" fill="#E7E7EE"/>
    <path stroke-width="1.5" d="M330.75 591.75h25.5v25.5h-25.5zm-160-393h25.5v25.5h-25.5z"/>
    <path d="M13.5 327H217c70.14 0 127 56.86 127 127v150"/>
    <circle cx="874" cy="349" r="137.5"/>
    <circle cx="874" cy="349" r="275.5"/>
    <path d="M460-64c0 151.878-123.569 275-276 275M460-64c0 151.878 123.569 275 276 275m-551.5.5h275v275h-275zm276 0h275v275h-275zm276 0h275v275h-275z"/>
  </g>
</svg>

<svg width="1150" height="625" viewBox="0 0 1150 625" fill="none" xmlns="http://www.w3.org/2000/svg">
<g opacity="0.64">
<path d="M457.927 197.576L459.5 191.879L461.073 197.576C462.731 203.579 467.421 208.269 473.424 209.927L479.121 211.5L473.424 213.073C467.421 214.731 462.731 219.421 461.073 225.424L459.5 231.121L457.927 225.424C456.269 219.421 451.579 214.731 445.576 213.073L439.879 211.5L445.576 209.927C451.579 208.269 456.269 203.579 457.927 197.576Z" fill="#E7E7EE" stroke="#E1E9ED"/>
<path d="M457.927 472.576L459.5 466.879L461.073 472.576C462.731 478.579 467.421 483.269 473.424 484.927L479.121 486.5L473.424 488.073C467.421 489.731 462.731 494.421 461.073 500.424L459.5 506.121L457.927 500.424C456.269 494.421 451.579 489.731 445.576 488.073L439.879 486.5L445.576 484.927C451.579 483.269 456.269 478.579 457.927 472.576Z" fill="#E7E7EE" stroke="#E1E9ED"/>
<path d="M341.927 472.576L343.5 466.879L345.073 472.576C346.731 478.579 351.421 483.269 357.424 484.927L363.121 486.5L357.424 488.073C351.421 489.731 346.731 494.421 345.073 500.424L343.5 506.121L341.927 500.424C340.269 494.421 335.579 489.731 329.576 488.073L323.879 486.5L329.576 484.927C335.579 483.269 340.269 478.579 341.927 472.576Z" fill="#E7E7EE" stroke="#E1E9ED"/>
<circle cx="13.5" cy="327.5" r="13" fill="#E7E7EE" stroke="#E1E9ED"/>
<circle cx="321.5" cy="377.5" r="13" fill="#E7E7EE" stroke="#E1E9ED"/>
<circle cx="782.5" cy="451.5" r="13" fill="#E7E7EE" stroke="#E1E9ED"/>
<circle cx="965.5" cy="246.5" r="13" fill="#E7E7EE" stroke="#E1E9ED"/>
<rect x="330.75" y="591.75" width="25.5" height="25.5" stroke="#E1E9ED" stroke-width="1.5"/>
<rect x="170.75" y="198.75" width="25.5" height="25.5" stroke="#E1E9ED" stroke-width="1.5"/>
<path d="M13.5 327H217C287.14 327 344 383.86 344 454V604" stroke="#E1E9ED"/>
<circle cx="874" cy="349" r="137.5" stroke="#E1E9ED"/>
<circle cx="874" cy="349" r="275.5" stroke="#E1E9ED"/>
<path d="M460 -64C460 87.8783 336.431 211 184 211" stroke="#E1E9ED"/>
<path d="M460 -64C460 87.8783 583.569 211 736 211" stroke="#E1E9ED"/>
<rect x="184.5" y="211.5" width="275" height="275" stroke="#E1E9ED"/>
<rect x="460.5" y="211.5" width="275" height="275" stroke="#E1E9ED"/>
<rect x="736.5" y="211.5" width="275" height="275" stroke="#E1E9ED"/>
</g>
</svg>
